src/lib/packages/icons/src/assets/line/phone-flip.svg

<svg width="24" height="24" viewBox="0 0 24 24" fill="none" xmlns="http://www.w3.org/2000/svg">
<path d="M7.4481 21.752C6.4981 21.752 5.5601 21.487 4.7191 20.968C3.4661 20.195 2.58107 18.924 2.29307 17.48C2.10607 16.548 2.52903 15.593 3.34703 15.105L5.99107 13.529C7.26907 12.766 8.92401 13.137 9.75401 14.376L10.5162 15.513C12.6762 14.457 14.4541 12.675 15.5121 10.504L14.3812 9.75203C13.1402 8.92703 12.7631 7.276 13.5221 5.994L15.0851 3.35402C15.5731 2.53202 16.5262 2.10602 17.4652 2.29402C18.9252 2.58602 20.1951 3.47102 20.9691 4.72502C21.7391 5.97302 21.949 7.43303 21.565 8.83403C19.872 14.994 14.991 19.873 8.82603 21.565C8.36903 21.69 7.9071 21.752 7.4481 21.752ZM7.42515 14.634C7.19715 14.634 6.96814 14.694 6.75914 14.818L4.11607 16.394C3.84407 16.557 3.70202 16.875 3.76402 17.186C3.97102 18.223 4.60718 19.136 5.50718 19.691C6.39518 20.239 7.43108 20.391 8.42808 20.118C14.0841 18.565 18.5641 14.089 20.1161 8.43602C20.3901 7.44002 20.239 6.402 19.69 5.511C19.135 4.61 18.2222 3.97501 17.1852 3.76701C16.8592 3.70201 16.5371 3.84302 16.3741 4.11802L14.8111 6.75801C14.4581 7.35301 14.6331 8.12 15.2091 8.503L16.8702 9.60801C17.1702 9.80701 17.2851 10.19 17.1471 10.521C15.9051 13.496 13.4951 15.912 10.5331 17.15C10.2051 17.288 9.8202 17.174 9.6212 16.876L8.50621 15.211C8.25821 14.838 7.84615 14.634 7.42515 14.634Z" fill="currentColor"/>
</svg>

<svg xmlns="http://www.w3.org/2000/svg" width="24" height="24" fill="none"><path fill="currentColor" d="M7.448 21.752a5.18 5.18 0 0 1-2.729-.784 5.34 5.34 0 0 1-2.426-3.488 2.254 2.254 0 0 1 1.054-2.375l2.644-1.576a2.802 2.802 0 0 1 3.763.847l.762 1.137a10.936 10.936 0 0 0 4.996-5.009l-1.13-.752a2.8 2.8 0 0 1-.86-3.758l1.563-2.64a2.253 2.253 0 0 1 2.38-1.06 5.353 5.353 0 0 1 3.504 2.431c.77 1.248.98 2.708.596 4.109-1.693 6.16-6.574 11.039-12.739 12.731a5.215 5.215 0 0 1-1.378.187Zm-.023-7.118a1.3 1.3 0 0 0-.666.184l-2.643 1.576a.754.754 0 0 0-.352.792 3.836 3.836 0 0 0 1.743 2.505c.888.548 1.924.7 2.921.427 5.656-1.553 10.136-6.029 11.688-11.682a3.666 3.666 0 0 0-.426-2.925 3.837 3.837 0 0 0-2.505-1.744.762.762 0 0 0-.81.351l-1.564 2.64a1.3 1.3 0 0 0 .398 1.745l1.661 1.105a.75.75 0 0 1 .277.913 12.416 12.416 0 0 1-6.614 6.629.75.75 0 0 1-.912-.274l-1.115-1.665a1.296 1.296 0 0 0-1.08-.577Z"/></svg>
